images/ICONOS/CONTACTANOS/PLUS.svg

<svg width="36" height="36" viewBox="0 0 36 36" fill="none" xmlns="http://www.w3.org/2000/svg">
<path d="M14.0936 0.745117H22.0702V13.9993H35.4646V21.9825H22.0702V35.7932H14.0936V21.9825H0.769531V13.9993H14.0936V0.745117Z" fill="url(#paint0_linear_208_472)"/>
<defs>
<linearGradient id="paint0_linear_208_472" x1="5.42545" y1="32.5856" x2="23.6716" y2="16.0766" gradientUnits="userSpaceOnUse">
<stop stop-color="#1723FF"/>
<stop offset="1" stop-color="#30E35E"/>
</linearGradient>
</defs>
</svg>

<svg width="36" height="36" fill="none" xmlns="http://www.w3.org/2000/svg"><path d="M14.094.745h7.976V14h13.395v7.984H22.07v13.81h-7.976v-13.81H.77v-7.984h13.324V.745Z" fill="url(#a)"/><defs><linearGradient id="a" x1="5.425" y1="32.586" x2="23.672" y2="16.077" gradientUnits="userSpaceOnUse"><stop stop-color="#1723FF"/><stop offset="1" stop-color="#30E35E"/></linearGradient></defs></svg>
